X: 50
M:2/4
L:1/8
K:G
"Andantino Calamato" d|d2 ed|G2 DG|B2 cd|E2 AG|F2 DE|
d3 d/2d/2|ed ^cd|G2 EG|B2 cd|E2 AG|F2 DE|F B2 A|G2-G||

